resources/svg/lock-laminated-open-light.svg

<svg xmlns="http://www.w3.org/2000/svg" viewBox="0 0 256 256" fill="currentColor"><path d="M207.99463,82h-110V52a30,30,0,0,1,60,0,6,6,0,0,0,12,0,42,42,0,0,0-84,0V82h-38a14.01572,14.01572,0,0,0-14,14V208a14.01572,14.01572,0,0,0,14,14h160a14.01572,14.01572,0,0,0,14-14V96A14.01572,14.01572,0,0,0,207.99463,82Zm-162,44h164v20h-164Zm0,32h164v20h-164Zm2-64h160a2.0026,2.0026,0,0,1,2,2v18h-164V96A2.0026,2.0026,0,0,1,47.99463,94Zm160,116h-160a2.0026,2.0026,0,0,1-2-2V190h164v18A2.0026,2.0026,0,0,1,207.99463,210Z"/></svg>

<svg xmlns="http://www.w3.org/2000/svg" viewBox="0 0 256 256" fill="currentColor"><path d="M208,82H98V52a30,30,0,0,1,60,0,6,6,0,0,0,12,0,42,42,0,0,0-84,0V82H48A14,14,0,0,0,34,96V208a14,14,0,0,0,14,14H208a14,14,0,0,0,14-14V96A14,14,0,0,0,208,82ZM46,126H210v20H46Zm0,32H210v20H46Zm2-64H208a2,2,0,0,1,2,2v18H46V96A2,2,0,0,1,48,94ZM208,210H48a2,2,0,0,1-2-2V190H210v18A2,2,0,0,1,208,210Z"/></svg>
